X:1771
T:Bonnie Anne
M:C|
L:1/8
N:"collected by J. O'Neill"
B:O'Neill's 1771
R:Hornpipe
Z:"Transcribed by Bob Safranek, rjs@gsp.org"
K:G
   G>AB>c d>BA>G | g>fg>e d2 A>A | B>dB>G    c>ec>A | B>dB>G G>FE>D |
   G>AB>c d>BA>G | g>fg>e d2 A>A | B>dB>G (3cde A>F | G2 G2  G2 z2 :|
|: d>ef>g f>af>d | g>bg>e f>af>d | d>ef>g    a>fe>d | B>dB>G F>AF>D |
   B>dB>G c>ec>A | f>af>d g>bg>e | d>gf>e    d>cB>A | G2 G2  G2 z2 :|


